icons/matlab/matlab-original.svg

<?xml version="1.0" encoding="UTF-8"?>
<svg xmlns="http://www.w3.org/2000/svg" xmlns:xlink="http://www.w3.org/1999/xlink" width="128px" height="128px" viewBox="0 0 128 128" version="1.1">
<defs>
<linearGradient id="linear0" gradientUnits="userSpaceOnUse" x1="16.803" y1="16.631" x2="15.013" y2="22.411" gradientTransform="matrix(4,0,0,-4,0,128)">
<stop offset="0" style="stop-color:rgb(33.333333%,6.666667%,13.333333%);stop-opacity:1;"/>
<stop offset="0.23" style="stop-color:rgb(33.333333%,13.333333%,20%);stop-opacity:1;"/>
<stop offset="0.36" style="stop-color:rgb(33.333333%,20%,26.666667%);stop-opacity:1;"/>
<stop offset="0.51" style="stop-color:rgb(40%,26.666667%,33.333333%);stop-opacity:1;"/>
<stop offset="0.66" style="stop-color:rgb(33.333333%,40%,53.333333%);stop-opacity:1;"/>
<stop offset="0.84" style="stop-color:rgb(13.333333%,60%,86.666667%);stop-opacity:1;"/>
</linearGradient>
<linearGradient id="linear1" gradientUnits="userSpaceOnUse" x1="29.71" y1="18.983" x2="11.71" y2="14.563" gradientTransform="matrix(4,0,0,4,0,0)">
<stop offset="0.081" style="stop-color:rgb(80%,20%,20%);stop-opacity:1;"/>
<stop offset="0.189" style="stop-color:rgb(87.058824%,32.156863%,22.352941%);stop-opacity:1;"/>
<stop offset="0.313" style="stop-color:rgb(94.117647%,43.137255%,24.313725%);stop-opacity:1;"/>
<stop offset="0.421" style="stop-color:rgb(98.039216%,50.196078%,25.882353%);stop-opacity:1;"/>
<stop offset="0.5" style="stop-color:rgb(99.607843%,52.54902%,26.27451%);stop-opacity:1;"/>
<stop offset="0.58" style="stop-color:rgb(98.039216%,49.803922%,25.882353%);stop-opacity:1;"/>
<stop offset="0.696" style="stop-color:rgb(93.72549%,42.352941%,24.313725%);stop-opacity:1;"/>
<stop offset="0.833" style="stop-color:rgb(86.27451%,29.803922%,21.568627%);stop-opacity:1;"/>
<stop offset="0.916" style="stop-color:rgb(81.176471%,21.176471%,20%);stop-opacity:1;"/>
</linearGradient>
</defs>
<g id="surface1">
<path style=" stroke:none;fill-rule:nonzero;fill:rgb(26.666667%,60%,86.666667%);fill-opacity:1;" d="M 8 70.199219 L 39.878906 57.320312 C 43.117188 53.042969 46.757812 49.089844 50.761719 45.519531 C 53.398438 44.121094 58.359375 44.878906 67.441406 33.601562 C 76.238281 22.601562 79.039062 13.199219 83.160156 13.199219 C 89.679688 13.199219 94.480469 27.28125 101.761719 48.601562 C 106.949219 64.882812 113.039062 80.871094 120 96.480469 C 112.398438 89.398438 105.921875 81.761719 98.519531 81.960938 C 91.640625 82.121094 84 90.28125 75.640625 100.761719 C 69 109.160156 60.199219 114.921875 56.761719 114.800781 C 56.761719 114.800781 47.878906 89.679688 40.441406 85.601562 C 37.308594 84.320312 33.753906 84.617188 30.878906 86.398438 L 8 70.160156 Z M 8 70.199219 "/>
<path style=" stroke:none;fill-rule:nonzero;fill:url(#linear0);" d="M 79.199219 16.078125 C 76.519531 19.679688 73.28125 26.28125 67.441406 33.601562 C 58.359375 44.878906 53.441406 44.121094 50.761719 45.519531 C 46.742188 49.070312 43.09375 53.027344 39.878906 57.320312 L 53.078125 66.960938 C 64.28125 51.679688 70.28125 35.121094 74.960938 24.398438 C 76.132812 21.511719 77.550781 18.726562 79.199219 16.078125 Z M 79.199219 16.078125 "/>
<path style=" stroke:none;fill-rule:nonzero;fill:url(#linear1);" d="M 83.199219 13.199219 C 74.480469 13.199219 68.519531 59.121094 36.320312 84.761719 C 45.359375 83.28125 53.199219 105.71875 56.800781 114.800781 C 72.800781 112.078125 85.601562 81.480469 98.519531 81.960938 C 105.921875 82.238281 112.398438 89.398438 120 96.480469 C 102.640625 60 94.519531 13.199219 83.199219 13.199219 Z M 83.199219 13.199219 "/>
</g>
</svg>

<svg xmlns="http://www.w3.org/2000/svg" viewBox="0 0 128 128"><defs><linearGradient id="matlab-original-a" gradientUnits="userSpaceOnUse" x1="16.803" y1="16.631" x2="15.013" y2="22.411" gradientTransform="matrix(4 0 0 -4 0 128)"><stop offset="0" stop-color="#512"/><stop offset=".23" stop-color="#523"/><stop offset=".36" stop-color="#534"/><stop offset=".51" stop-color="#645"/><stop offset=".66" stop-color="#568"/><stop offset=".84" stop-color="#29d"/></linearGradient><linearGradient id="matlab-original-b" gradientUnits="userSpaceOnUse" x1="29.71" y1="18.983" x2="11.71" y2="14.563" gradientTransform="scale(4)"><stop offset=".081" stop-color="#c33"/><stop offset=".189" stop-color="#de5239"/><stop offset=".313" stop-color="#f06e3e"/><stop offset=".421" stop-color="#fa8042"/><stop offset=".5" stop-color="#fe8643"/><stop offset=".58" stop-color="#fa7f42"/><stop offset=".696" stop-color="#ef6c3e"/><stop offset=".833" stop-color="#dc4c37"/><stop offset=".916" stop-color="#cf3633"/></linearGradient></defs><path d="M8 70.2l31.879-12.88a82.62 82.62 0 0110.883-11.8c2.636-1.399 7.597-.641 16.68-11.918 8.796-11 11.597-20.403 15.718-20.403 6.52 0 11.32 14.082 18.602 35.403A461.75 461.75 0 00120 96.48c-7.602-7.082-14.078-14.718-21.48-14.52-6.88.161-14.52 8.321-22.88 18.802C69 109.16 60.2 114.922 56.763 114.8c0 0-8.883-25.121-16.32-29.2a10.563 10.563 0 00-9.563.797L8 70.16zm0 0" fill="#49d"/><path d="M79.2 16.078c-2.68 3.602-5.92 10.203-11.76 17.524-9.082 11.277-14 10.52-16.68 11.918a78.673 78.673 0 00-10.882 11.8l13.2 9.64C64.28 51.68 70.28 35.122 74.96 24.399a54.649 54.649 0 014.238-8.32zm0 0" fill="url(#matlab-original-a)"/><path d="M83.2 13.2c-8.72 0-14.68 45.921-46.88 71.562 9.04-1.48 16.88 20.957 20.48 30.039 16-2.723 28.802-33.32 41.72-32.84 7.402.277 13.878 7.437 21.48 14.52C102.64 60 94.52 13.198 83.2 13.198zm0 0" fill="url(#matlab-original-b)"/></svg>
